X: 6869
T: Charlie's Frolics
R: jig
M: 6/8
K: Bminor
|:B2f fed|B2f fed|A2e edB|A2e edB|
G2e edB|G2e edB|ABd edB|ABd f3:|
|:fed BAB|efe fef|edB ABF|DEF DEF|
DFA BAF|EFA BAF|ABd edB|ABd f3:|

